icon-theme/apps/scalable/panda-files.svg

<?xml version="1.0" encoding="UTF-8" standalone="no"?>
<svg
   xmlns:dc="http://purl.org/dc/elements/1.1/"
   xmlns:cc="http://creativecommons.org/ns#"
   xmlns:rdf="http://www.w3.org/1999/02/22-rdf-syntax-ns#"
   xmlns:svg="http://www.w3.org/2000/svg"
   xmlns="http://www.w3.org/2000/svg"
   xmlns:xlink="http://www.w3.org/1999/xlink"
   xmlns:sodipodi="http://sodipodi.sourceforge.net/DTD/sodipodi-0.dtd"
   xmlns:inkscape="http://www.inkscape.org/namespaces/inkscape"
   height="48"
   viewBox="0 0 48 48"
   width="48"
   version="1.1"
   id="svg41"
   sodipodi:docname="user-home.svg"
   inkscape:version="0.92.5 (2060ec1f9f, 2020-04-08)">
  <metadata
     id="metadata47">
    <rdf:RDF>
      <cc:Work
         rdf:about="">
        <dc:format>image/svg+xml</dc:format>
        <dc:type
           rdf:resource="http://purl.org/dc/dcmitype/StillImage" />
      </cc:Work>
    </rdf:RDF>
  </metadata>
  <defs
     id="defs45" />
  <sodipodi:namedview
     pagecolor="#ffffff"
     bordercolor="#666666"
     borderopacity="1"
     objecttolerance="10"
     gridtolerance="10"
     guidetolerance="10"
     inkscape:pageopacity="0"
     inkscape:pageshadow="2"
     inkscape:window-width="1920"
     inkscape:window-height="915"
     id="namedview43"
     showgrid="false"
     inkscape:zoom="13.906433"
     inkscape:cx="33.316133"
     inkscape:cy="21.624881"
     inkscape:window-x="0"
     inkscape:window-y="35"
     inkscape:window-maximized="1"
     inkscape:current-layer="svg41" />
  <filter
     id="a"
     color-interpolation-filters="sRGB"
     height="1.099489"
     width="1.056413"
     x="-.028207"
     y="-.049744">
    <feGaussianBlur
       stdDeviation="5.8998423"
       id="feGaussianBlur2" />
  </filter>
  <linearGradient
     id="b"
     gradientUnits="userSpaceOnUse"
     x1="13.92103"
     x2="13.524684"
     y1="39.852324"
     y2="8.305117">
    <stop
       offset="0"
       stop-color="#197cf1"
       id="stop5" />
    <stop
       offset="1"
       stop-color="#20bcfa"
       id="stop7" />
  </linearGradient>
  <linearGradient
     id="c">
    <stop
       offset="0"
       stop-color="#ccc"
       id="stop10" />
    <stop
       offset="1"
       stop-color="#e6e6e6"
       id="stop12" />
  </linearGradient>
  <linearGradient
     id="d"
     gradientUnits="userSpaceOnUse"
     x1="22.098651"
     x2="22.003917"
     xlink:href="#c"
     y1="39.567832"
     y2="11.94437" />
  <linearGradient
     id="e"
     gradientTransform="matrix(.82970355 0 0 .87402304 44.868948 7.045139)"
     gradientUnits="userSpaceOnUse"
     x1="-33.88871"
     x2="-34.502491"
     y1="37.608711"
     y2="2.822808">
    <stop
       offset="0"
       stop-color="#ccc"
       id="stop16" />
    <stop
       offset="1"
       stop-color="#f5f2f5"
       id="stop18" />
  </linearGradient>
  <linearGradient
     id="f"
     gradientTransform="matrix(.85071011 0 0 .87172595 45.339098 8.461861)"
     gradientUnits="userSpaceOnUse"
     x1="-27.458342"
     x2="-26.62384"
     y1="36.068886"
     y2="3.757701">
    <stop
       offset="0"
       stop-color="#2a97ff"
       id="stop21" />
    <stop
       offset="1"
       stop-color="#20bcfa"
       id="stop23" />
  </linearGradient>
  <linearGradient
     id="g"
     gradientUnits="userSpaceOnUse"
     x1="18.02523"
     x2="17.593777"
     xlink:href="#c"
     y1="39.75425"
     y2="9.648277" />
  <path
     d="m6.5439662 11.656278c-.7351528 0-1.3263212.592871-1.3263212 1.328021v25.543597c0 .735152.5911684 1.328023 1.3263212 1.328023h17.2064738 1.205593 17.206474c.735152 0 1.326322-.592871 1.326322-1.328023v-25.543597c0-.73515-.59117-1.328021-1.326322-1.328021h-17.206474-1.205593z"
     fill="url(#d)"
     id="path27" />
  <path
     d="m18.474468 8.0205511c-.102628-.00269-.226588.00157-.387735.00157h-12.1689132c-.3815126 0-.6891325.3097891-.6891325.6938416v4.2289813c-.0005648.016-.00471.03095-.00471.04709v25.576381c0 .736091.5935103 1.329602 1.3296009 1.329602h35.6983098c.736093 0 1.328033-.593511 1.328033-1.329602v-25.576378c0-.736092-.59194-1.329602-1.328033-1.329602h-21.316008c-.01268-.0169-.02114-.02595-.03454-.04395-.491861-.662668-1.234682-2.4492081-1.718902-3.0956048-.2915-.4244578-.400085-.4942592-.707971-.5023288z"
     fill="url(#b)"
     id="path29" />
  <path
     d="m7.499159 9.4566879h9.738435c.277 0 .5.223.5.5v1.1090001c0 .277-.223.5-.5.5h-9.738435c-.2770001 0-.5-.223-.5-.5v-1.1090001c0-.277.2229999-.5.5-.5z"
     fill="url(#g)"
     id="path31" />
  <path
     d="m5.5804566 12.850769c-.6383882 0-1.1951591.543892-1.1517441 1.21482l1.5120334 23.366264c.043421.670931.5133569 1.214822 1.1517441 1.214822h14.94167 4.377195 14.941671c.638388 0 1.108331-.543891 1.151746-1.214822l1.512033-23.366264c.0434-.670928-.513358-1.21482-1.151744-1.21482h-16.453706-4.377195z"
     fill="url(#e)"
     id="path33" />
  <path
     d="m28.241425 148.07206c-12.87594 0-23.24141 9.6069-23.24141 21.54052l16 244.76159v7.4003c0 6.06398 5.26673 10.94526 11.80953 10.94526h446.379045c6.54281 0 11.81139-4.88128 11.81139-10.94526l15.998-252.16189c0-11.93362-10.36547-21.54052-23.24141-21.54052h-455.515295z"
     fill-rule="evenodd"
     filter="url(#a)"
     opacity=".3"
     transform="matrix(.07561882 0 0 .07969348 4.839513 2.856494)"
     id="path35" />
  <path
     d="m5.1236901 14.591215c-.6545516 0-1.2143558.541818-1.1809047 1.211627l1.1469427 22.96587c.033451.669811.526354 1.211629 1.1809047 1.211629h15.6555402 4.488019l16.039057-.04794c.654549-.002 1.154618-.541498 1.180906-1.211629l.89902-22.917931c.02629-.670129-.526354-1.211627-1.180904-1.211627h-16.870282-4.488019z"
     fill="url(#f)"
     id="path37" />
</svg>

<?xml version="1.0" encoding="UTF-8" standalone="no"?>
<svg
   xmlns:dc="http://purl.org/dc/elements/1.1/"
   xmlns:cc="http://creativecommons.org/ns#"
   xmlns:rdf="http://www.w3.org/1999/02/22-rdf-syntax-ns#"
   xmlns:svg="http://www.w3.org/2000/svg"
   xmlns="http://www.w3.org/2000/svg"
   xmlns:xlink="http://www.w3.org/1999/xlink"
   xmlns:sodipodi="http://sodipodi.sourceforge.net/DTD/sodipodi-0.dtd"
   xmlns:inkscape="http://www.inkscape.org/namespaces/inkscape"
   height="48"
   viewBox="0 0 48 48"
   width="48"
   version="1.1"
   id="svg41"
   sodipodi:docname="panda-files.svg"
   inkscape:version="0.92.5 (2060ec1f9f, 2020-04-08)">
  <metadata
     id="metadata47">
    <rdf:RDF>
      <cc:Work
         rdf:about="">
        <dc:format>image/svg+xml</dc:format>
        <dc:type
           rdf:resource="http://purl.org/dc/dcmitype/StillImage" />
      </cc:Work>
    </rdf:RDF>
  </metadata>
  <defs
     id="defs45" />
  <sodipodi:namedview
     pagecolor="#ffffff"
     bordercolor="#666666"
     borderopacity="1"
     objecttolerance="10"
     gridtolerance="10"
     guidetolerance="10"
     inkscape:pageopacity="0"
     inkscape:pageshadow="2"
     inkscape:window-width="1920"
     inkscape:window-height="934"
     id="namedview43"
     showgrid="false"
     inkscape:zoom="6.9532165"
     inkscape:cx="11.500441"
     inkscape:cy="25.118519"
     inkscape:window-x="0"
     inkscape:window-y="35"
     inkscape:window-maximized="1"
     inkscape:current-layer="svg41" />
  <filter
     id="a"
     color-interpolation-filters="sRGB"
     height="1.099489"
     width="1.056413"
     x="-.028207"
     y="-.049744">
    <feGaussianBlur
       stdDeviation="5.8998423"
       id="feGaussianBlur2" />
  </filter>
  <linearGradient
     id="b"
     gradientUnits="userSpaceOnUse"
     x1="13.92103"
     x2="13.524684"
     y1="39.852324"
     y2="8.305117">
    <stop
       offset="0"
       stop-color="#197cf1"
       id="stop5" />
    <stop
       offset="1"
       stop-color="#20bcfa"
       id="stop7" />
  </linearGradient>
  <linearGradient
     id="c">
    <stop
       offset="0"
       stop-color="#ccc"
       id="stop10" />
    <stop
       offset="1"
       stop-color="#e6e6e6"
       id="stop12" />
  </linearGradient>
  <linearGradient
     id="d"
     gradientUnits="userSpaceOnUse"
     x1="22.098651"
     x2="22.003917"
     xlink:href="#c"
     y1="39.567832"
     y2="11.94437" />
  <linearGradient
     id="e"
     gradientTransform="matrix(0.82970355,0,0,0.87402304,44.868948,7.045139)"
     gradientUnits="userSpaceOnUse"
     x1="-33.88871"
     x2="-34.502491"
     y1="37.608711"
     y2="2.822808">
    <stop
       offset="0"
       stop-color="#ccc"
       id="stop16" />
    <stop
       offset="1"
       stop-color="#f5f2f5"
       id="stop18" />
  </linearGradient>
  <linearGradient
     id="f"
     gradientTransform="matrix(0.85071011,0,0,0.87172595,45.339098,8.461861)"
     gradientUnits="userSpaceOnUse"
     x1="-27.458342"
     x2="-26.62384"
     y1="36.068886"
     y2="3.757701">
    <stop
       offset="0"
       stop-color="#2a97ff"
       id="stop21" />
    <stop
       offset="1"
       stop-color="#20bcfa"
       id="stop23" />
  </linearGradient>
  <linearGradient
     id="g"
     gradientUnits="userSpaceOnUse"
     x1="18.02523"
     x2="17.593777"
     xlink:href="#c"
     y1="39.75425"
     y2="9.648277" />
  <g
     id="g3737"
     transform="matrix(1.0956599,0,0,1.0956599,-2.5562954,-2.2958383)">
    <path
       id="path27"
       d="m 6.5439662,11.656278 c -0.7351528,0 -1.3263212,0.592871 -1.3263212,1.328021 v 25.543597 c 0,0.735152 0.5911684,1.328023 1.3263212,1.328023 H 23.75044 24.956033 42.162507 c 0.735152,0 1.326322,-0.592871 1.326322,-1.328023 V 12.984299 c 0,-0.73515 -0.59117,-1.328021 -1.326322,-1.328021 H 24.956033 23.75044 Z"
       style="fill:url(#d)"
       inkscape:connector-curvature="0" />
    <path
       id="path29"
       d="m 18.474468,8.0205511 c -0.102628,-0.00269 -0.226588,0.00157 -0.387735,0.00157 H 5.9178198 c -0.3815126,0 -0.6891325,0.3097891 -0.6891325,0.6938416 v 4.2289813 c -5.648e-4,0.016 -0.00471,0.03095 -0.00471,0.04709 v 25.576381 c 0,0.736091 0.5935103,1.329602 1.3296009,1.329602 H 42.251888 c 0.736093,0 1.328033,-0.593511 1.328033,-1.329602 V 12.992037 c 0,-0.736092 -0.59194,-1.329602 -1.328033,-1.329602 H 20.93588 c -0.01268,-0.0169 -0.02114,-0.02595 -0.03454,-0.04395 C 20.409479,10.955817 19.666658,9.1692769 19.182438,8.5228802 18.890938,8.0984224 18.782353,8.028621 18.474467,8.0205514 Z"
       style="fill:url(#b)"
       inkscape:connector-curvature="0" />
    <path
       id="path31"
       d="m 7.499159,9.4566879 h 9.738435 c 0.277,0 0.5,0.223 0.5,0.5 v 1.1090001 c 0,0.277 -0.223,0.5 -0.5,0.5 H 7.499159 c -0.2770001,0 -0.5,-0.223 -0.5,-0.5 V 9.9566879 c 0,-0.277 0.2229999,-0.5 0.5,-0.5 z"
       style="fill:url(#g)"
       inkscape:connector-curvature="0" />
    <path
       id="path33"
       d="m 5.5804566,12.850769 c -0.6383882,0 -1.1951591,0.543892 -1.1517441,1.21482 l 1.5120334,23.366264 c 0.043421,0.670931 0.5133569,1.214822 1.1517441,1.214822 h 14.94167 4.377195 14.941671 c 0.638388,0 1.108331,-0.543891 1.151746,-1.214822 l 1.512033,-23.366264 c 0.0434,-0.670928 -0.513358,-1.21482 -1.151744,-1.21482 H 26.411355 22.03416 Z"
       style="fill:url(#e)"
       inkscape:connector-curvature="0" />
    <path
       id="path35"
       transform="matrix(0.07561882,0,0,0.07969348,4.839513,2.856494)"
       d="m 28.241425,148.07206 c -12.87594,0 -23.24141,9.6069 -23.24141,21.54052 l 16,244.76159 v 7.4003 c 0,6.06398 5.26673,10.94526 11.80953,10.94526 H 479.18859 c 6.54281,0 11.81139,-4.88128 11.81139,-10.94526 l 15.998,-252.16189 c 0,-11.93362 -10.36547,-21.54052 -23.24141,-21.54052 H 28.241275 Z"
       inkscape:connector-curvature="0"
       style="opacity:0.3;fill-rule:evenodd;filter:url(#a)" />
    <path
       id="path37"
       d="m 5.1236901,14.591215 c -0.6545516,0 -1.2143558,0.541818 -1.1809047,1.211627 l 1.1469427,22.96587 c 0.033451,0.669811 0.526354,1.211629 1.1809047,1.211629 h 15.6555402 4.488019 l 16.039057,-0.04794 c 0.654549,-0.002 1.154618,-0.541498 1.180906,-1.211629 l 0.89902,-22.917931 c 0.02629,-0.670129 -0.526354,-1.211627 -1.180904,-1.211627 H 26.481989 21.99397 Z"
       style="fill:url(#f)"
       inkscape:connector-curvature="0" />
  </g>
</svg>
